!!!OTL: Die Schlangenkoechin 'Oh, where have you been,
!!!ARE: Nord - America, USA, Neuengland
!!!YOR: 4, S. 210
!!    1905 gedruckt
!!!SCT: Q2079P
!!!YEM: Copyright 1995, estate of Helmut Schaffrath.
**kern
*ICvox
*Ivox
*M3/4
*k[f#]
*G:
{8d
=1
4d
4b
4b
=2
4b
4a}
{4g
=3
4d
4f#
4a
=4
2a
8r}
{8a
=5
4d
4b
4b
=6
4b
4a}
{4g
=7
4d
4f#
4a
=8
2a}
{8g
8b
=9
4dd
4b
8dd
8cc
=10
4b
4b}
{8b
8a
=11
4g
4d
4g
=12
2a}
{8g
8b
=13
4dd
4b
8dd
8cc
=14
4b
4g}
{4b
=15
4a
4a
4a
=16
2g
8r}
==
!!!AGN: Ballade, Mord; Reigen - Tanz, antiphonal
!! Amerikanische Fassung der Ballade. Pausen an den Zeilenenden
!!    ergaenzt.
!!    Zweite und vierte Zeile = Refrain.
!!!ONB: ESAC (Essen Associative Code) Database: BALLADE
!!!AMT: simple triple
!!!AIN: vox
!!!EED: Helmut Schaffrath
!!!EEV: 1.0
*-
